packages/foundations/assets/icons/functional/images/transportation/handcart_24.svg

<svg width="24" height="24" viewBox="0 0 24 24" fill="none" xmlns="http://www.w3.org/2000/svg">
<g clip-path="url(#clip0_2214_7283)">
<path fill-rule="evenodd" clip-rule="evenodd" d="M4.98572 16C6.09029 16 6.98572 16.8954 6.98572 18C6.98572 19.1046 6.09029 20 4.98572 20C3.88115 20 2.98572 19.1046 2.98572 18C2.98572 16.8954 3.88115 16 4.98572 16ZM14.9857 16C16.0903 16 16.9857 16.8954 16.9857 18C16.9857 19.1046 16.0903 20 14.9857 20C13.8811 20 12.9857 19.1046 12.9857 18C12.9857 16.8954 13.8811 16 14.9857 16ZM11.4329 16.6056C11.9269 16.8526 12.1271 17.4532 11.8801 17.9472C11.6508 18.4059 11.1165 18.6113 10.6458 18.4406C10.4109 18.3269 10.1909 18.27 9.98572 18.27C9.78055 18.27 9.59629 18.3115 9.43293 18.3944C8.93895 18.6414 8.33828 18.4412 8.09129 17.9472C7.8443 17.4532 8.04453 16.8526 8.5385 16.6056C9.44955 16.1501 10.5219 16.1501 11.4329 16.6056ZM18.0114 4C19.1477 4 20.1281 4.77632 20.3991 5.86508L21.996 14.8252C22.0995 15.3937 21.7507 15.7778 21.2626 15.968L18.854 16.9286C18.3412 17.1335 17.7593 16.8839 17.5544 16.371C17.3641 15.8948 17.5544 15.3008 18.1119 15.0714L19.8827 14.363L18.4652 6.38033C18.431 6.18781 18.2618 6 18.0114 6C17.4591 6 17.0114 5.55228 17.0114 5C17.0114 4.44772 17.4591 4 18.0114 4ZM16.9857 9C17.538 9 17.9857 9.44772 17.9857 10C17.9857 10.5128 17.6371 10.9928 16.9857 11L16.9807 12.7102C16.9069 13.9097 16.0338 14.9095 14.8814 14.9942H4.99245C4.00021 14.9942 2.99077 13.7911 2.99077 12.7102C2.99077 12.4578 2.98909 11.8855 2.98572 10.9933C2.41583 10.9933 1.98572 10.5128 1.98572 10C1.98572 9.48716 2.40112 9 2.98472 9H16.9857ZM14.9847 11H4.98472C4.98605 11.7872 4.98638 12.2868 4.98572 12.4988C4.98472 12.8169 5.18517 13 5.48572 13C5.78627 13 14.2522 13 14.4874 13C14.7226 13 14.9857 12.7883 14.9857 12.4988C14.9857 12.3058 14.9854 11.8062 14.9847 11Z" fill="#1A1C1F"/>
</g>
<defs>
<clipPath id="clip0_2214_7283">
<rect width="24" height="24" fill="white"/>
</clipPath>
</defs>
</svg>

<svg xmlns="http://www.w3.org/2000/svg" width="24" height="24" fill="none"><g clip-path="url(#a)"><path fill="#1A1C1F" fill-rule="evenodd" d="M4.986 16a2 2 0 1 1 0 4 2 2 0 0 1 0-4m10 0a2 2 0 1 1 0 4 2 2 0 0 1 0-4m-3.553.606a1 1 0 0 1-.787 1.835 1.5 1.5 0 0 0-.66-.171q-.308 0-.553.124a1 1 0 1 1-.894-1.788 3.24 3.24 0 0 1 2.894 0M18.01 4c1.137 0 2.117.776 2.388 1.865l1.597 8.96c.104.569-.245.953-.733 1.143l-2.409.96a1 1 0 0 1-.742-1.857l1.77-.708-1.417-7.983a.46.46 0 0 0-.454-.38 1 1 0 1 1 0-2m-1.025 5a1 1 0 0 1 1 1c0 .513-.349.993-1 1l-.005 1.71c-.074 1.2-.947 2.2-2.1 2.284H4.992c-.992 0-2.001-1.203-2.001-2.284l-.005-1.717c-.57 0-1-.48-1-.993s.415-1 .999-1zm-2.001 2h-10v1.499c0 .318.2.501.5.501h9.002a.52.52 0 0 0 .499-.501z" clip-rule="evenodd"/></g><defs><clipPath id="a"><path fill="#fff" d="M0 0h24v24H0z"/></clipPath></defs></svg>
